src/topics/icons/jsbin.svg

<svg height="358" preserveAspectRatio="xMidYMid" viewBox="0 0 256 358" width="256" xmlns="http://www.w3.org/2000/svg"><g transform="translate(7.968872 106.583658)"><path d="m.78393774 52.4461223v146.9420177c0 28.507632 53.16632906 51.620348 118.75014226 51.620348 65.584809 0 118.750132-23.112716 118.750132-51.620348v-146.9420177s-4.939714 50.1769957-118.750132 50.1769957c-113.81243019.001007-118.75014226-50.1769957-118.75014226-50.1769957z" fill="#9eaab2"/><ellipse cx="119.53407" cy="52.446132" fill="#8e979a" rx="118.750132" ry="51.616374"/><path d="m.78393774 52.4461223v146.9420177c0 28.507632 53.16632906 51.620348 118.75014226 51.620348 65.584809 0 118.750132-23.112716 118.750132-51.620348v-146.9420177s-4.939714 50.1769957-118.750132 50.1769957c-113.81243019.001007-118.75014226-50.1769957-118.75014226-50.1769957z" fill="#9eaab2"/><g fill="#8e979a"><path d="m222.402251 76.9275019c3.350891-2.5649805 6.619134-5.1319632 9.088488-8.6053951 1.417463-1.9981946 2.584903-4.1248772 3.681629-6.2914142 1.214247-2.1107549 2.256167-4.2942257 3.110838-6.5444458v143.9028892c0 13.218356-11.43534 25.276265-30.234895 34.407586v-148.2010899c5.070195-2.3886793 9.908286-5.2674142 14.35393-8.6681401z"/><path d="m16.6658988 76.9275019c-3.3529027-2.5649805-6.6191439-5.1319632-9.08849802-8.6053951-1.42045136-1.9981946-2.58689494-4.1248772-3.68262475-6.2914142-1.21425681-2.1107549-2.25519066-4.2942257-3.11084825-6.5444458v143.9028892c0 13.218356 11.43533072 25.276265 30.23389882 34.407586v-148.2010899c-5.0682023-2.3886793-9.9072996-5.2674142-14.3519377-8.6681401z"/><path d="m119.53408 247.150568c-63.9661423 0-116.10248467-21.375482-118.57482708-48.135979-.06175876.659414-.10259922 1.322833-.10259922 1.986232 0 27.684856 53.1334475 50.126214 118.6774263 50.126214 65.543969 0 118.677426-22.441358 118.677426-50.126214 0-.663399-.037842-1.326818-.102599-1.986232-2.473338 26.760457-54.608695 48.135979-118.574827 48.135979z"/></g><path d="m119.53408 100.581105c-63.9661423 0-116.10248467-21.3735097-118.57482708-48.1339666-.06175876.6594141-.10259922 1.3208305-.10259922 1.9882235 0 27.6838699 53.1334475 50.1242221 118.6774263 50.1242221 65.543969 0 118.677426-22.4403622 118.677426-50.1242221 0-.667393-.037842-1.3288094-.102599-1.9882235-2.473338 26.7604569-54.608695 48.1339666-118.574827 48.1339666z" fill="#dbe1e3"/><path d="m119.53408 230.705795c-63.9661423 0-116.10248467-21.373509-118.57482708-48.133966-.06175876.661416-.10259922 1.32083-.10259922 1.988233 0 27.68385 53.1334475 50.124183 118.6774263 50.124183 65.543969 0 118.677426-22.440323 118.677426-50.124183 0-.667403-.037842-1.326817-.102599-1.988233-2.473338 26.760457-54.608695 48.133966-118.574827 48.133966z" fill="#dbe1e3"/></g><g transform="translate(18.92607 99.610895)"><path d="m216.990381 56.7323791c0 4.5462413-1.960332 8.6442235-5.577214 12.7292663-7.157042 8.0864225-54.526007 26.834189-102.101167 26.8740433-48.0632629.0418266-96.338687-18.7059399-103.57243019-26.8740433-3.6238344-4.0880211-5.5762179-8.1770583-5.5762179-12.7292663 0-22.6306091 48.53939299-40.9759277 108.41352009-40.9759277 59.874136.0009861 108.413519 18.3453186 108.413519 40.9759277z" fill="#1a2b2f"/><path d="m5.73858366 7.80152529c17.10717514 11.93438131 60.62219454 23.07385771 102.83728234 23.07385771 42.215107 0 88.117819-11.5369239 102.836325-23.07385771v-7.1610372s-32.25602 20.63937741-102.836325 20.63937741c-70.5822785 0-102.83728234-20.63937741-102.83728234-20.63937741z" fill="#1b3134"/><path d="m211.413167 65.3068949s-20.90734 29.4379979-102.836305 29.4379979c-81.9309576 0-102.83730216-29.4379979-102.83730216-29.4379979v-63.91731295s29.60336186 20.15727065 100.41675716 20.15727065c70.812399 0 105.257846-20.15727065 105.257846-20.15727065v63.91731295h-.001006z" fill="#213f48"/><path d="m108.537037 91.5981846c-51.6323111-.0079689-94.3125912-14.9456187-102.79744727-32.1793096v10.0427704s20.89537747 28.2277355 102.75660727 28.2476776h.04084.039864c81.864208-.0199421 102.836306-28.2476776 102.836306-28.2476776v-10.0427704c-8.484896 17.2336909-51.243849 32.1713407-102.87616 32.1793096z" fill="#1b3134"/></g><path d="m127.502952 118.789987c-68.7215668 0-124.73576134-21.3755023-127.39338002-48.1359792-.06574319.6594241-.10857587 1.3228327-.10857587 1.9882334 0 27.6848558 57.08501169 50.1251988 127.50195589 50.1251988 70.416933 0 127.501915-22.440343 127.501915-50.1251988 0-.6654007-.042813-1.3288093-.109542-1.9882334-2.656612 26.7604769-58.670807 48.1359792-127.392373 48.1359792z" fill="#8e979a"/><path d="m127.502952 0c-70.4169442 0-127.50195589 22.4423346-127.50195589 50.1261946v21.8805391c0 27.6818577 57.08501169 50.1241923 127.50195589 50.1241923 70.416933 0 127.501915-22.4423346 127.501915-50.1241923v-21.8805391c0-27.68386-57.084982-50.1261946-127.501915-50.1261946z" fill="#9eaab2"/><path d="m127.240965 16.9089494c18.843413 0 36.202584 2.5888872 49.373136 6.8522335l18.870288-6.8522335 4.569162 19.4420645h-56.994366l-.726163-.1474242 20.262848-7.3542723c-9.320582-3.1148327-21.75502-5.019393-35.302111-5.019393-10.857578 0-21.030839 1.2331928-29.4419825 3.3419455l-18.7208816-3.8011518c13.1317043-4.0900233 30.0765141-6.4617587 48.1100701-6.4617587zm-73.6941323 17.9010739c.6325292-2.8319377 7.5734163-5.0901167 15.5143969-5.0901167 7.9389883 0 14.0770116 2.2591751 13.7044669 5.0901167-.3785214 2.8827393-7.341323 5.2574631-15.543284 5.2574631-8.200965.0009961-14.3200623-2.3747238-13.6755798-5.2574631zm74.0108953 35.9167104c-22.214246 0-41.8913822-3.5322123-55.4533955-9.0725703l-24.9923736 9.0725703 5.1827549-23.6825002h59.6360462l.270942.0587804-23.0250682 8.3563579c9.5237976 3.7423814 23.1047572 6.1111185 38.3093542 6.1111185 12.4952 0 23.814983-1.5848094 32.673389-4.2035798l21.815773 4.671751c-13.248239 5.2495041-32.374517 8.6880722-54.417422 8.6880722zm61.919138-16.3023191c-8.565541 0-15.884959-2.5918755-16.341167-5.7306148-.446257-3.0839533 5.909914-5.5403579 14.185587-5.5403579 8.279658 0 15.576166 2.4564046 16.306314 5.5403579.744073 3.1387393-5.586199 5.7306148-14.150734 5.7306148z" fill="#dbe1e3"/><path d="m216.017193 108.079823v-24.3190037s34.511191-10.6075642 38.987674-33.6346148v21.8805392c0 14.1656454-14.952561 26.9576865-38.987674 36.0730793z" fill="#8e979a"/><path d="m38.9867082 108.079823v-24.5849648c-27.1509417-8.4858521-37.76049808-23.8697687-38.9867082-33.3686537v21.8805392c.00099611 14.1656454 14.9525914 26.9576865 38.9867082 36.0730793z" fill="#8e979a"/><path d="m127.502952 96.2739399c-68.7215668 0-124.73576134-21.3755019-127.39338002-48.1359788-.06574319.6604202-.10857587 1.3218366-.10857587 1.9892296 0 27.6828837 57.08501169 50.1242123 127.50195589 50.1242123 70.416933 0 127.501915-22.4413286 127.501915-50.1242123 0-.667393-.042813-1.3288094-.109542-1.9892296-2.656612 26.7604769-58.670807 48.1359788-127.392373 48.1359788z" fill="#dbe1e3"/><g transform="translate(161.36965 135.470817)"><path d="m34.0231072 19.7289339c0 9.7489182-7.13214 17.6540488-16.9129338 17.6540488-9.77978772 0-16.91193776-7.9051206-16.91193776-17.6540488 0-9.75091055 7.13214008-17.65304285 16.91193776-17.65304285 9.7807938 0 16.9129338 7.9021323 16.9129338 17.65304285z" fill="#1b3134"/><ellipse cx="17.11116" cy="16.216654" fill="#51c3f1" rx="15.536311" ry="15.536311"/><circle cx="17.110163" cy="13.818023" fill="#fff" r="5.068202"/></g><g transform="translate(58.770428 135.470817)"><path d="m34.2641556 19.7289339c0 9.7489182-7.13214 17.6540488-16.9129338 17.6540488-9.77880157 0-16.91293386-7.9051206-16.91293386-17.6540488 0-9.75091055 7.13313618-17.65304285 16.91293386-17.65304285 9.7807938 0 16.9129338 7.9021323 16.9129338 17.65304285z" fill="#1b3134"/><circle cx="17.506615" cy="16.216654" fill="#51c3f1" r="15.535315"/><circle cx="17.352218" cy="13.818023" fill="#fff" r="5.068202"/></g><path d="m128.239076 326.028451c-5.298313 0-10.6265-.277904-19.007761-.98814-3.927647-.336665-7.125167-3.847979-7.125167-7.836389v-79.661811c0-3.713494 2.813021-6.515539 6.544446-6.515539.206194 0 .419352.009942.630537.027872 8.349385.709239 13.665608.987144 18.957955.987144 5.291331 0 10.606558-.277905 18.959938-.988141.209193-.017939.421354-.026875.627548-.026875 3.729432 0 6.544446 2.801039 6.544446 6.515539v79.661811c0 3.98842-3.198516 7.499724-7.126173 7.836389-8.383253.710206-13.710454.98814-19.005759.98814zm-19.588482-91.023439c-1.53599 0-2.565967 1.018023-2.565967 2.537089v79.661811c0 1.90458 1.627632 3.713494 3.484389 3.871896 8.258729.700234 13.493282.97516 18.67007.97516 5.17377 0 10.408333-.27392 18.669064-.97516 1.855761-.157406 3.484389-1.967326 3.484389-3.871896v-79.661811c0-1.610708-1.198309-2.673546-2.852856-2.523134-8.477883.719171-13.887751 1.000094-19.300597 1.000094-5.413862 0-10.824726-.280913-19.299621-1.000094-.097628-.009971-.196243-.013955-.288881-.013955z" fill="#dbe1e3"/><g transform="translate(162.365759 231.097276)"><path d="m62.9979144.49106179c-9.444099 6.12107953-27.0234397 17.51358751-62.09543969 25.41670601 5.03733292 26.7335819 5.03733292 26.7335819 11.66044139 61.7727103 12.133623-3.6108949 37.3829827-11.1305313 57.8390562-27.9946459-2.3338733-19.5894686-4.2055521-34.824965-7.4040579-59.19476045" fill="#f5dd3e"/><g fill="#3b3735"><path d="m40.1471751 70.8960623c-6.91201 3.813105-11.6365547-1.7272629-11.6365547-1.7272629l4.0810584-3.8778621s2.2761089 2.935553 6.0364202.4323312c1.7611106-1.1714142.612617-7.0385158.612617-7.0385158l-3.3807938-16.1319944 5.3202079-2.2432174s3.2254108 18.6282235 3.5621055 20.4919433c.6295309 3.4893597 1.1484937 6.9239433-4.5950605 10.0945681z"/><path d="m54.4762123 62.7458988c-3.8927838.5877043-6.0931984-2.3149671-6.0931984-2.3149671l3.5491262-4.3440212s1.3377942 1.4841924 3.1955274 1.2062879c1.5758444-.2410583 3.4256187-1.289971 4.0711073-3.2702456 1.0997043-3.3907449.0806748-4.5521979-3.372815-4.1677098-3.4495352.3854842-7.7885758.8915374-8.5566057-5.9129028-.6813286-6.0354141 4.5950605-10.6523891 8.1671072-11.2799477 3.5441656-.6205659 5.5214319 1.8816598 5.5214319 1.8816598l-3.5341945 4.2902512s-2.3448106-1.0658465-3.7543147.1962235c-1.2820122 1.1505058-1.7750761 2.6516619-1.2869628 3.7921967.4273207.9990874 1.718268 1.4393874 3.7911906 1.2859966 2.0738989-.1494363 5.4885404-1.3557242 7.5903502 2.8737544 2.3637566 4.7504535-.0986148 14.3788327-9.2877298 15.7634341z"/></g></g></svg>

<?xml version="1.0" encoding="UTF-8" standalone="no"?>
<svg width="256px" height="358px" viewBox="0 0 256 358" version="1.1" xmlns="http://www.w3.org/2000/svg" xmlns:xlink="http://www.w3.org/1999/xlink" preserveAspectRatio="xMidYMid">
	<g>
		<g transform="translate(7.968872, 106.583658)">
			<path d="M0.783937743,52.4461223 L0.783937743,199.38814 C0.783937743,227.895772 53.9502668,251.008488 119.53408,251.008488 C185.118889,251.008488 238.284212,227.895772 238.284212,199.38814 L238.284212,52.4461223 C238.284212,52.4461223 233.344498,102.623118 119.53408,102.623118 C5.72164981,102.624125 0.783937743,52.4461223 0.783937743,52.4461223 L0.783937743,52.4461223 Z" fill="#9EAAB2"></path>
			<ellipse fill="#8E979A" cx="119.53407" cy="52.4461323" rx="118.750132" ry="51.6163735"></ellipse>
			<path d="M0.783937743,52.4461223 L0.783937743,199.38814 C0.783937743,227.895772 53.9502668,251.008488 119.53408,251.008488 C185.118889,251.008488 238.284212,227.895772 238.284212,199.38814 L238.284212,52.4461223 C238.284212,52.4461223 233.344498,102.623118 119.53408,102.623118 C5.72164981,102.624125 0.783937743,52.4461223 0.783937743,52.4461223 L0.783937743,52.4461223 Z" fill="#9EAAB2"></path>
			<path d="M222.402251,76.9275019 C225.753142,74.3625214 229.021385,71.7955387 231.490739,68.3221068 C232.908202,66.3239122 234.075642,64.1972296 235.172368,62.0306926 C236.386615,59.9199377 237.428535,57.7364669 238.283206,55.4862468 L238.283206,199.389136 C238.283206,212.607492 226.847866,224.665401 208.048311,233.796722 L208.048311,85.5956321 C213.118506,83.2069528 217.956597,80.3282179 222.402241,76.927492 L222.402251,76.9275019 Z" fill="#8E979A"></path>
			<path d="M16.6658988,76.9275019 C13.3129961,74.3625214 10.0467549,71.7955387 7.57740078,68.3221068 C6.15694942,66.3239122 4.99050584,64.1972296 3.89477603,62.0306926 C2.68051922,59.9199377 1.63958537,57.7364669 0.783927782,55.4862468 L0.783927782,199.389136 C0.783927782,212.607492 12.2192585,224.665401 31.0178266,233.796722 L31.0178266,85.5956321 C25.9496243,83.2069528 21.110527,80.3282179 16.6658889,76.927492 L16.6658988,76.9275019 Z" fill="#8E979A"></path>
			<path d="M119.53408,247.150568 C55.5679377,247.150568 3.43159533,225.775086 0.959252918,199.014589 C0.897494163,199.674003 0.856653696,200.337422 0.856653696,201.000821 C0.856653696,228.685677 53.9901012,251.127035 119.53408,251.127035 C185.078049,251.127035 238.211506,228.685677 238.211506,201.000821 C238.211506,200.337422 238.173664,199.674003 238.108907,199.014589 C235.635569,225.775046 183.500212,247.150568 119.53408,247.150568 L119.53408,247.150568 Z" fill="#8E979A"></path>
			<path d="M119.53408,100.581105 C55.5679377,100.581105 3.43159533,79.2075953 0.959252918,52.4471384 C0.897494163,53.1065525 0.856653696,53.7679689 0.856653696,54.4353619 C0.856653696,82.1192318 53.9901012,104.559584 119.53408,104.559584 C185.078049,104.559584 238.211506,82.1192218 238.211506,54.4353619 C238.211506,53.7679689 238.173664,53.1065525 238.108907,52.4471384 C235.635569,79.2075953 183.500212,100.581105 119.53408,100.581105 L119.53408,100.581105 Z" fill="#DBE1E3"></path>
			<path d="M119.53408,230.705795 C55.5679377,230.705795 3.43159533,209.332286 0.959252918,182.571829 C0.897494163,183.233245 0.856653696,183.892659 0.856653696,184.560062 C0.856653696,212.243912 53.9901012,234.684245 119.53408,234.684245 C185.078049,234.684245 238.211506,212.243922 238.211506,184.560062 C238.211506,183.892659 238.173664,183.233245 238.108907,182.571829 C235.635569,209.332286 183.500212,230.705795 119.53408,230.705795 L119.53408,230.705795 Z" fill="#DBE1E3"></path>
		</g>
		<g transform="translate(18.926070, 99.610895)">
			<path d="M216.990381,56.7323791 C216.990381,61.2786204 215.030049,65.3766026 211.413167,69.4616454 C204.256125,77.5480679 156.88716,96.2958344 109.312,96.3356887 C61.2487371,96.3775153 12.973313,77.6297488 5.73956981,69.4616454 C2.11573541,65.3736243 0.163351907,61.2845871 0.163351907,56.7323791 C0.163351907,34.10177 48.7027449,15.7564514 108.576872,15.7564514 C168.451008,15.7574375 216.990391,34.10177 216.990391,56.7323791 L216.990381,56.7323791 Z" fill="#1A2B2F"></path>
			<path d="M5.73858366,7.80152529 C22.8457588,19.7359066 66.3607782,30.875383 108.575866,30.875383 C150.790973,30.875383 196.693685,19.3384591 211.412191,7.80152529 L211.412191,0.640488093 C211.412191,0.640488093 179.156171,21.2798655 108.575866,21.2798655 C37.9935875,21.2798655 5.73858366,0.640488093 5.73858366,0.640488093 L5.73858366,7.80152529 L5.73858366,7.80152529 Z" fill="#1B3134"></path>
			<path d="M211.413167,65.3068949 C211.413167,65.3068949 190.505827,94.7448928 108.576862,94.7448928 C26.6459044,94.7448928 5.73955984,65.3068949 5.73955984,65.3068949 L5.73955984,1.38958195 C5.73955984,1.38958195 35.3429217,21.5468526 106.156317,21.5468526 C176.968716,21.5468526 211.414163,1.38958195 211.414163,1.38958195 L211.414163,65.3068949 L211.413157,65.3068949 L211.413167,65.3068949 Z" fill="#213F48"></path>
			<path d="M108.537037,91.5981846 C56.9047259,91.5902157 14.2244458,76.6525659 5.73958973,59.418875 L5.73958973,69.4616454 C5.73958973,69.4616454 26.6349672,97.6893809 108.496197,97.709323 L108.496197,97.709323 L108.537037,97.709323 L108.576901,97.709323 L108.576901,97.709323 C190.441109,97.6893809 211.413207,69.4616454 211.413207,69.4616454 L211.413207,59.418875 C202.928311,76.6525659 160.169358,91.5902157 108.537047,91.5981846 L108.537037,91.5981846 Z" fill="#1B3134"></path>
		</g>
		<g>
			<path d="M127.502952,118.789987 C58.7813852,118.789987 2.76719066,97.4144847 0.109571984,70.6540078 C0.0438287938,71.3134319 0.000996108949,71.9768405 0.000996108949,72.6422412 C0.000996108949,100.327097 57.0860078,122.76744 127.502952,122.76744 C197.919885,122.76744 255.004867,100.327097 255.004867,72.6422412 C255.004867,71.9768405 254.962054,71.3134319 254.895325,70.6540078 C252.238713,97.4144847 196.224518,118.789987 127.502952,118.789987 L127.502952,118.789987 Z" fill="#8E979A"></path>
			<path d="M127.502952,0 C57.0860078,0 0.000996108949,22.4423346 0.000996108949,50.1261946 L0.000996108949,72.0067337 C0.000996108949,99.6885914 57.0860078,122.130926 127.502952,122.130926 C197.919885,122.130926 255.004867,99.6885914 255.004867,72.0067337 L255.004867,50.1261946 C255.004867,22.4423346 197.919885,1.41555596e-14 127.502952,1.41555596e-14 L127.502952,0 Z" fill="#9EAAB2"></path>
			<path d="M127.240965,16.9089494 C146.084378,16.9089494 163.443549,19.4978366 176.614101,23.7611829 L195.484389,16.9089494 L200.053551,36.3510139 L143.059185,36.3510139 L142.333022,36.2035897 L162.59587,28.8493174 C153.275288,25.7344847 140.84085,23.8299244 127.293759,23.8299244 C116.436181,23.8299244 106.26292,25.0631172 97.8517765,27.1718699 L79.1308949,23.3707181 C92.2625992,19.2806948 109.207409,16.9089594 127.240965,16.9089594 L127.240965,16.9089494 Z M53.5468327,34.8100233 C54.1793619,31.9780856 61.120249,29.7199066 69.0612296,29.7199066 C77.0002179,29.7199066 83.1382412,31.9790817 82.7656965,34.8100233 C82.3871751,37.6927626 75.4243735,40.0674864 67.2224125,40.0674864 C59.0214475,40.0684825 52.9023502,37.6927626 53.5468327,34.8100233 L53.5468327,34.8100233 Z M127.557728,70.7267337 C105.343482,70.7267337 85.6663458,67.1945214 72.1043325,61.6541634 L47.1119589,70.7267337 L52.2947138,47.0442335 L111.93076,47.0442335 L112.201702,47.1030139 L89.1766338,55.4593718 C98.7004314,59.2017532 112.281391,61.5704903 127.485988,61.5704903 C139.981188,61.5704903 151.300971,59.9856809 160.159377,57.3669105 L181.97515,62.0386615 C168.726911,67.2881656 149.600633,70.7267337 127.557728,70.7267337 L127.557728,70.7267337 Z M189.476866,54.4244146 C180.911325,54.4244146 173.591907,51.8325391 173.135699,48.6937998 C172.689442,45.6098465 179.045613,43.1534419 187.321286,43.1534419 C195.600944,43.1534419 202.897452,45.6098465 203.6276,48.6937998 C204.371673,51.8325391 198.041401,54.4244146 189.476866,54.4244146 L189.476866,54.4244146 Z" fill="#DBE1E3"></path>
			<path d="M216.017193,108.079823 L216.017193,83.7608193 C216.017193,83.7608193 250.528384,73.1532551 255.004867,50.1262045 L255.004867,72.0067437 C255.004867,86.1723891 240.052306,98.9644302 216.017193,108.079823 L216.017193,108.079823 Z" fill="#8E979A"></path>
			<path d="M38.9867082,108.079823 L38.9867082,83.4948582 C11.8357665,75.0090061 1.22621012,59.6250895 0,50.1262045 L0,72.0067437 C0.000996108949,86.1723891 14.9525914,98.9644302 38.9867082,108.079823 L38.9867082,108.079823 Z" fill="#8E979A"></path>
			<path d="M127.502952,96.2739399 C58.7813852,96.2739399 2.76719066,74.898438 0.109571984,48.1379611 C0.0438287938,48.7983813 0.000996108949,49.4597977 0.000996108949,50.1271907 C0.000996108949,77.8100744 57.0860078,100.251403 127.502952,100.251403 C197.919885,100.251403 255.004867,77.8100744 255.004867,50.1271907 C255.004867,49.4597977 254.962054,48.7983813 254.895325,48.1379611 C252.238713,74.898438 196.224518,96.2739399 127.502952,96.2739399 L127.502952,96.2739399 Z" fill="#DBE1E3"></path>
		</g>
		<g transform="translate(58.770428, 135.470817)">
			<g transform="translate(102.599222, 0.000000)">
				<path d="M34.0231072,19.7289339 C34.0231072,29.4778521 26.8909672,37.3829827 17.1101734,37.3829827 C7.33038568,37.3829827 0.198235642,29.4778621 0.198235642,19.7289339 C0.198235642,9.97802335 7.33037572,2.07589105 17.1101734,2.07589105 C26.8909672,2.07589105 34.0231072,9.97802335 34.0231072,19.7289339 L34.0231072,19.7289339 Z" fill="#1B3134"></path>
				<ellipse fill="#51C3F1" cx="17.1111595" cy="16.2166537" rx="15.5363113" ry="15.5363113"></ellipse>
				<circle fill="#FFFFFF" cx="17.1101634" cy="13.8180233" r="5.06820233"></circle>
			</g>
			<g>
				<path d="M34.2641556,19.7289339 C34.2641556,29.4778521 27.1320156,37.3829827 17.3512218,37.3829827 C7.57242023,37.3829827 0.438287938,29.4778621 0.438287938,19.7289339 C0.438287938,9.97802335 7.57142412,2.07589105 17.3512218,2.07589105 C27.1320156,2.07589105 34.2641556,9.97802335 34.2641556,19.7289339 L34.2641556,19.7289339 Z" fill="#1B3134"></path>
				<circle fill="#51C3F1" cx="17.5066148" cy="16.2166537" r="15.5353152"></circle>
				<circle fill="#FFFFFF" cx="17.3522179" cy="13.8180233" r="5.06820233"></circle>
			</g>
		</g>
		<path d="M128.239076,326.028451 C122.940763,326.028451 117.612576,325.750547 109.231315,325.040311 C105.303668,324.703646 102.106148,321.192332 102.106148,317.203922 L102.106148,237.542111 C102.106148,233.828617 104.919169,231.026572 108.650594,231.026572 C108.856788,231.026572 109.069946,231.036514 109.281131,231.054444 C117.630516,231.763683 122.946739,232.041588 128.239086,232.041588 C133.530417,232.041588 138.845644,231.763683 147.199024,231.053447 C147.408217,231.035508 147.620378,231.026572 147.826572,231.026572 C151.556004,231.026572 154.371018,233.827611 154.371018,237.542111 L154.371018,317.203922 C154.371018,321.192342 151.172502,324.703646 147.244845,325.040311 C138.861592,325.750517 133.534391,326.028451 128.239086,326.028451 L128.239076,326.028451 Z M108.650594,235.005012 C107.114604,235.005012 106.084627,236.023035 106.084627,237.542101 L106.084627,317.203912 C106.084627,319.108492 107.712259,320.917406 109.569016,321.075808 C117.827745,321.776042 123.062298,322.050968 128.239086,322.050968 C133.412856,322.050968 138.647419,321.777048 146.90815,321.075808 C148.763911,320.918402 150.392539,319.108482 150.392539,317.203912 L150.392539,237.542101 C150.392539,235.931393 149.19423,234.868555 147.539683,235.018967 C139.0618,235.738138 133.651932,236.019061 128.239086,236.019061 C122.825224,236.019061 117.41436,235.738148 108.939465,235.018967 C108.841837,235.008996 108.743222,235.005012 108.650584,235.005012 L108.650594,235.005012 Z" fill="#DBE1E3"></path>
		<g transform="translate(162.365759, 231.097276)">
			<path d="M62.9979144,0.49106179 C53.5538154,6.61214132 35.9744747,18.0046493 0.902474708,25.9077678 C5.93980763,52.6413497 5.93980763,52.6413497 12.5629161,87.6804781 C24.6965391,84.0695832 49.9458988,76.5499468 70.4019723,59.6858322 C68.068099,40.0963636 66.1964202,24.8608672 62.9979144,0.491071751" fill="#F5DD3E"></path>
			<path d="M40.1471751,70.8960623 C33.2351651,74.7091673 28.5106204,69.1687994 28.5106204,69.1687994 L32.5916788,65.2909373 C32.5916788,65.2909373 34.8677877,68.2264903 38.628099,65.7232685 C40.3892096,64.5518543 39.240716,58.6847527 39.240716,58.6847527 L35.8599222,42.5527583 L41.1801301,40.3095409 C41.1801301,40.3095409 44.4055409,58.9377644 44.7422356,60.8014842 C45.3717665,64.2908439 45.8907293,67.7254275 40.1471751,70.8960523 L40.1471751,70.8960623 Z" fill="#3B3735"></path>
			<path d="M54.4762123,62.7458988 C50.5834285,63.3336031 48.3830139,60.4309317 48.3830139,60.4309317 L51.9321401,56.0869105 C51.9321401,56.0869105 53.2699343,57.5711029 55.1276675,57.2931984 C56.7035119,57.0521401 58.5532862,56.0032274 59.1987748,54.0229528 C60.2984791,50.6322079 59.2794496,49.4707549 55.8259598,49.855243 C52.3764246,50.2407272 48.037384,50.7467804 47.2693541,43.9423402 C46.5880255,37.9069261 51.8644146,33.2899511 55.4364613,32.6623925 C58.9806269,32.0418266 60.9578932,34.5440523 60.9578932,34.5440523 L57.4236987,38.8343035 C57.4236987,38.8343035 55.0788881,37.768457 53.669384,39.030527 C52.3873718,40.1810328 51.8943079,41.6821889 52.3824212,42.8227237 C52.8097419,43.8218111 54.1006892,44.2621111 56.1736118,44.1087203 C58.2475107,43.959284 61.6621522,42.7529961 63.763962,46.9824747 C66.1277186,51.7329282 63.6653472,61.3613074 54.4762322,62.7459088 L54.4762123,62.7458988 Z" fill="#3B3735"></path>
		</g>
	</g>
</svg>
